symbols/web/iron/materialsymbolsoutlined/iron_wght300fill1_40px.svg

<svg xmlns="http://www.w3.org/2000/svg" height="40" width="40"><path d="M4.375 29.167v-4.25q0-2.5 1.792-4.292 1.791-1.792 4.291-1.792h15.167v-1.958q0-.958-.667-1.625-.666-.667-1.625-.667h-6.166q-.917 0-1.584.667-.666.667-.666 1.625h-2.125q0-1.833 1.27-3.104 1.271-1.271 3.105-1.271h6.166q1.834 0 3.105 1.271 1.27 1.271 1.27 3.104v7.042q1 0 1.75-.646t.75-1.646v-6.417q0-1.833 1.271-3.104 1.271-1.271 3.104-1.271h1.042v2.084h-1.042q-.958 0-1.625.666-.666.667-.666 1.625v6.417q0 1.875-1.354 3.125Q29.583 26 27.708 26v3.167Z"/></svg>

<svg xmlns="http://www.w3.org/2000/svg" height="40" width="40"><path d="M4.375 29.167V24.917Q4.375 22.417 6.167 20.625Q7.958 18.833 10.458 18.833H25.625V16.875Q25.625 15.917 24.958 15.25Q24.292 14.583 23.333 14.583H17.167Q16.25 14.583 15.583 15.25Q14.917 15.917 14.917 16.875H12.792Q12.792 15.042 14.062 13.771Q15.333 12.5 17.167 12.5H23.333Q25.167 12.5 26.438 13.771Q27.708 15.042 27.708 16.875V23.917Q28.708 23.917 29.458 23.271Q30.208 22.625 30.208 21.625V15.208Q30.208 13.375 31.479 12.104Q32.75 10.833 34.583 10.833H35.625V12.917H34.583Q33.625 12.917 32.958 13.583Q32.292 14.25 32.292 15.208V21.625Q32.292 23.5 30.938 24.75Q29.583 26 27.708 26V29.167Z"/></svg>
